X:1
T:Tempesta di dolcezza
T:Tempesta di dolcezza
T:Giovanni Nauwach
T:Source : Libro primo di Arie passeggiate a una voce + BC ---Brescia---1623. Editor : André Vierendeels (29/10/16).
T:Notes : Original clefs : C1, F4 Figures in BC are notated in original print
T:©
T:©
T:©
T:©
C:Giovanni Nauwach
Z:©
%%score 1 2
L:1/8
Q:1/4=98
M:4/4
K:C
V:1 treble nm="Soprano" snm="S"
V:2 bass nm="MusicXML Part"
V:1
 z2 G2 c2 cc | dddd edcB | c4 B4 | z2 e2 G3 G | GFGE cBcA | fedc B4 | A4 z2 e2 | c4 z2 d2 | %8
w: Tem- pe- sta, tempe-|sta di dol- cez- * * * *|* za,|Su l'a- ni-|ma _ _ _ _ _ _ _|mi _ _ _ ver-|sa A-|mor, A-|
 ^G4 A2 AB | c4 A4 | d/c/B/A/ G/A/B/A/ B/G/A/B/ c/d/e/c/ | %11
w: mor men- tre ti|bac- ci'o|mio _ _ _ _ _ _ _ _ _ _ _ te- * * *|
 f/e/d/c/ B/c/d/G/ A/B/c/B/ c/B/B/4B/4A/4B/4 | c8 | c6 d2 | B6 E2 | F6 G2 | E8 | z2 AB c4 | %18
w: so- * * * * * * * * * * * * * * * * *|ro,|las- *|so ch'io|mo- *|ro,|un di- lu-|
 deff A4 | e/d/c/B/ A/B/c/B/ c/A/B/c/ d/c/B/A/ | ^G2 A2 TB4 | A4 z EFG | A2 B/c/d/c/ B4 | %23
w: vio di ba- ci la|som- * * * * * * * * * * * * * * *|* * mer-|sa, gia di qiel|la- * * * * bro|
 z2 c/d/e/d/ c4 | c/B/c/d/ c/B/B/B/ B/B/A/G/ ^F/G/A/B/ | cB dc B4 | A4 A2 B2 | c2 Bc d4 | %28
w: al _ _ _ tuon|dol- * * * * * * * * * * * * * * *|ce _ so- * no-|ro, die- tro'al|lam- po d'un ri-|
 c4 z BBc | d4 AAAB | c4 G4 | z2 ed c/B/c/A/ d/c/B/A/ | G/F/G/E/ F/G/A/B/ c/d/e/c/ d/e/A/B/ | %33
w: so, ma del tuo|den- te, ma del tuo|den- te|la sa- et- * * * ta _ _ _|_ _ _ _ _ _ _ _ _ _ _ _ _ _ _ _|
 c/d/e/f/ g/a/B B4 | !fermata!A8 |] %35
w: * * * * * * uc- ci-|so.|
V:2
 A,,8- | A,,8 | A,,4 E,4 | C,8 | C,8 |"^#" D,4 E,4 | A,,4 C,4 | A,,4 B,,4 |"^#" E,4 F,4 | F,8 | %10
 G,8- | G,8 | C,6 B,,2 | A,,8 | E,4 ^C,4 | D,8 | A,,8 | A,8 | G,4 F,4 | C,4 A,,4 |"^#" E,8 | %21
 A,,2 B,,2 C,4- | C,2 B,,2 E,4 | C,4 A,,4- | A,,2 G,,2 G,,4 |"^#" A,,4 E,4 | A,,8- | A,,4 G,,4 | %28
 C,2 D,2 E,4 | z B,,B,,C, D,4 | z A,,A,,B,, C,2 B,,A,, | G,,4 A,,2 B,,2 | C,8 |"^#" C,2 D,2 E,4 | %34
 !fermata!A,,8 |] %35

